X: 14
T: The Aerial Flight
R: reel
B: Bland & Weller, eds. "24 Favorite Country Dances, Hornpipes and Reels", 1803, London p.7 #14
S: http://imslp.org/wiki/24_Favorite_Country_Dances,_Hornpipes_and_Reels_(Various)
M: C
L: 1/8
Z: 2012 John Chambers <jc:trillian.mit.edu>
K: C
g | {f}e2dc GBce | fdec fdec | {f}e2dc GBcd | egde c/c/c c :|
|: f | ecce fddf | ecgc (B/c/d) BG | ecce fdgf | ecdB c2-c :|
%%begintext align
%% Set & Change Sides, .|
%% back again - Cross over two Couple :|.
%% right and left :|:
%%endtext

%%sep 1 1 500
%%sep 1 1 500
